X: 8
T: Tatter Jack Walsh
R: jig
M: 6/8
L: 1/8
K: Amix
A|cBc ABA|GEF G2G|GED DCD|EF^G A2A|
cBc ABA|GEF G2G|GED DCD|EF^G A2:||
A|Ace ecA|Ace e2c|ded dBA|GAB d2 c/d/|
edc dcB|cBA ^GAB|cBA EDC|EF^G Az:||


Tune 1638	Setting 15062

